Assets/_ICAProject/ThirdPartyAssets/Textures/LUT/leanne-lut.CUBE
#Created by: Adobe Photoshop Export Color Lookup Plugin
TITLE "leanne_lut.psd"
#LUT size
LUT_3D_SIZE 32
#data domain
DOMAIN_MIN 0.0 0.0 0.0
DOMAIN_MAX 1.0 1.0 1.0
#LUT data points
0.000000 0.000000 0.000000
0.000000 0.000000 0.000000
0.000000 0.000000 0.000000
0.000350 0.000000 0.000000
0.004272 0.000000 0.000000
0.009558 0.000000 0.000000
0.017076 0.000000 0.000000
0.028498 0.000000 0.000000
0.045661 0.000000 0.000000
0.071277 0.000000 0.000000
0.109333 0.000000 0.000000
0.165697 0.000000 0.000000
0.248991 0.000000 0.000000
0.371886 0.000000 0.000000
0.553000 0.000000 0.000000
0.819679 0.000000 0.000000
1.000000 0.000000 0.000000
1.000000 0.000000 0.000000
1.000000 0.000000 0.000000
1.000000 0.000000 0.000000
1.000000 0.000000 0.000000
1.000000 0.000000 0.000000
1.000000 0.000000 0.000000
1.000000 0.000000 0.000000
1.000000 0.000000 0.000000
1.000000 0.000000 0.000000
1.000000 0.000000 0.000000
1.000000 0.000000 0.000000
1.000000 0.000000 0.000000
1.000000 0.000000 0.000000
1.000000 0.000000 0.000000
1.000000 0.000000 0.000000
0.000000 0.000000 0.000000
0.000000 0.000000 0.000000
0.000000 0.000000 0.000000
0.000588 0.000000 0.000000
0.004656 0.000000 0.000000
0.010011 0.000000 0.000000
0.017586 0.000000 0.000000
0.029065 0.000000 0.000000
0.046287 0.000000 0.000000
0.071964 0.000000 0.000000
0.110085 0.000000 0.000000
0.166517 0.000000 0.000000
0.249883 0.000000 0.000000
0.372857 0.000000 0.000000
0.554055 0.000000 0.000000
0.820825 0.000000 0.000000
1.000000 0.000000 0.000000
1.000000 0.000000 0.000000
1.000000 0.000000 0.000000
1.000000 0.000000 0.000000
1.000000 0.000000 0.000000
1.000000 0.000000 0.000000
1.000000 0.000000 0.000000
1.000000 0.000000 0.000000
1.000000 0.000000 0.000000
1.000000 0.000000 0.000000
1.000000 0.000000 0.000000
1.000000 0.000000 0.000000
1.000000 0.000000 0.000000
1.000000 0.000000 0.000000
1.000000 0.000000 0.000000
1.000000 0.000000 0.000000
0.000000 0.000000 0.000000
0.000000 0.000000 0.000000
0.000000 0.000000 0.000000
0.000849 0.000000 0.000000
0.005046 0.000000 0.000000
0.010467 0.000000 0.000000
0.018099 0.000000 0.000000
0.029635 0.000000 0.000000
0.046915 0.000000 0.000000
0.072652 0.000000 0.000000
0.110837 0.000000 0.000000
0.167337 0.000000 0.000000
0.250777 0.000000 0.000000
0.373829 0.000000 0.000000
0.555111 0.000000 0.000000
0.821972 0.000000 0.000000
1.000000 0.000000 0.000000
1.000000 0.000000 0.000000
1.000000 0.000000 0.000000
1.000000 0.000000 0.000000
1.000000 0.000000 0.000000
1.000000 0.000000 0.000000
1.000000 0.000000 0.000000
1.000000 0.000000 0.000000
1.000000 0.000000 0.000000
1.000000 0.000000 0.000000
1.000000 0.000000 0.000000
1.000000 0.000000 0.000000
1.000000 0.000000 0.000000
1.000000 0.000000 0.000000
1.000000 0.000000 0.000000
1.000000 0.000000 0.000000
0.000000 0.002793 0.000000
0.000000 0.002711 0.000000
0.000000 0.002611 0.000000
0.000704 0.002513 0.000000
0.005439 0.002687 0.000000
0.010924 0.002414 0.000000
0.018611 0.002084 0.000000
0.030202 0.001655 0.000000
0.047539 0.001109 0.000000
0.073336 0.000457 0.000000
0.111584 0.000000 0.000000
0.168152 0.000000 0.000000
0.251663 0.000000 0.000000
0.374792 0.000000 0.000000
0.556158 0.000000 0.000000
0.823109 0.000000 0.000000
1.000000 0.000000 0.000000
1.000000 0.000000 0.000000
1.000000 0.000000 0.000000
1.000000 0.000000 0.000000
1.000000 0.000000 0.000000
1.000000 0.000000 0.000000
1.000000 0.000000 0.000000
1.000000 0.000000 0.000000
1.000000 0.000000 0.000000
1.000000 0.000000 0.000000
1.000000 0.000000 0.000000
1.000000 0.000000 0.000000
1.000000 0.000000 0.000000
1.000000 0.000000 0.000000
1.000000 0.000000 0.000000
1.000000 0.000000 0.000000
0.000000 0.007227 0.000000
0.000000 0.007133 0.000000
0.000000 0.007011 0.000000
0.000512 0.006890 0.000000
0.005009 0.006777 0.000000
0.011356 0.007149 0.000000
0.019094 0.006732 0.000000
0.030736 0.006175 0.000000
0.048126 0.005436 0.000000
0.073979 0.004467 0.000000
0.112286 0.003223 0.000000
0.168916 0.001692 0.000000
0.252495 0.000092 0.000000
0.375697 0.000000 0.000000
0.557141 0.000000 0.000000
0.824176 0.000000 0.000000
1.000000 0.000000 0.000000
1.000000 0.000000 0.000000
1.000000 0.000000 0.000000
1.000000 0.000000 0.000000
1.000000 0.000000 0.000000
1.000000 0.000000 0.000000
1.000000 0.000000 0.000000
1.000000 0.000000 0.000000
1.000000 0.000000 0.000000
1.000000 0.000000 0.000000
1.000000 0.000000 0.000000
1.000000 0.000000 0.000000
1.000000 0.000000 0.000000
1.000000 0.000000 0.000000
1.000000 0.000000 0.000000
1.000000 0.000000 0.000000
0.000000 0.012536 0.000000
0.000000 0.012439 0.000000
0.000000 0.012301 0.000000
0.000329 0.012165 0.000000
0.004702 0.012038 0.000000
0.010638 0.011906 0.000000
0.019595 0.012430 0.000000
0.031289 0.011794 0.000000
0.048734 0.010944 0.000000
0.074644 0.009812 0.000000
0.113011 0.008320 0.000000
0.169707 0.006386 0.000000
0.253355 0.003955 0.000000
0.376632 0.001148 0.000000
0.558156 0.000000 0.000000
0.825278 0.000000 0.000000
1.000000 0.000000 0.000000
1.000000 0.000000 0.000000
1.000000 0.000000 0.000000
1.000000 0.000000 0.000000
1.000000 0.000000 0.000000
1.000000 0.000000 0.000000
1.000000 0.000000 0.000000
1.000000 0.000000 0.000000
1.000000 0.000000 0.000000
1.000000 0.000000 0.000000
1.000000 0.000000 0.000000
1.000000 0.000000 0.000000
1.000000 0.000000 0.000000
1.000000 0.000000 0.000000
1.000000 0.000000 0.000000
1.000000 0.000000 0.000000
0.000000 0.019817 0.000000
0.000000 0.019721 0.000000
0.000000 0.019570 0.000000
0.000131 0.019420 0.000000
0.004329 0.019279 0.000000
0.010194 0.019134 0.000000
0.018589 0.018956 0.000000
0.031975 0.019614 0.000000
0.049487 0.018665 0.000000
0.075467 0.017394 0.000000
0.113909 0.015701 0.000000
0.170684 0.013467 0.000000
0.254418 0.010560 0.000000
0.377787 0.006881 0.000000
0.559411 0.002534 0.000000
0.826640 0.000000 0.000000
1.000000 0.000000 0.000000
1.000000 0.000000 0.000000
1.000000 0.000000 0.000000
1.000000 0.000000 0.000000
1.000000 0.000000 0.000000
1.000000 0.000000 0.000000
1.000000 0.000000 0.000000
1.000000 0.000000 0.000000
1.000000 0.000000 0.000000
1.000000 0.000000 0.000000
1.000000 0.000000 0.000000
1.000000 0.000000 0.000000
1.000000 0.000000 0.000000
1.000000 0.000000 0.000000
1.000000 0.000000 0.000000
1.000000 0.000000 0.000000
0.000000 0.030662 0.000000
0.000000 0.030573 0.000000
0.000000 0.030407 0.000000
0.000000 0.030242 0.000000
0.003834 0.030088 0.000000
0.009597 0.029929 0.000000
0.017911 0.029733 0.000000
0.030626 0.029467 0.000000
0.050511 0.030311 0.000000
0.076586 0.028900 0.000000
0.115129 0.027010 0.000000
0.172011 0.024492 0.000000
0.255862 0.021164 0.000000
0.379355 0.016826 0.000000
0.561113 0.011311 0.000000
0.828488 0.004711 0.000000
1.000000 0.000000 0.000000
1.000000 0.000000 0.000000
1.000000 0.000000 0.000000
1.000000 0.000000 0.000000
1.000000 0.000000 0.000000
1.000000 0.000000 0.000000
1.000000 0.000000 0.000000
1.000000 0.000000 0.000000
1.000000 0.000000 0.000000
1.000000 0.000000 0.000000
1.000000 0.000000 0.000000
1.000000 0.000000 0.000000
1.000000 0.000000 0.000000
1.000000 0.000000 0.000000
1.000000 0.000000 0.000000
1.000000 0.000000 0.000000
0.000000 0.046753 0.000000
0.000000 0.046679 0.000000
0.000000 0.046498 0.000000
0.000000 0.046318 0.000000
0.003184 0.046149 0.000000
0.008801 0.045975 0.000000
0.016999 0.045760 0.000000
0.029604 0.045469 0.000000
0.048676 0.045075 0.000000
0.078109 0.046178 0.000000
0.116787 0.044088 0.000000
0.173815 0.041288 0.000000
0.257821 0.037555 0.000000
0.381483 0.032618 0.000000
0.563424 0.026173 0.000000
0.830995 0.017957 0.000000
1.000000 0.008043 0.000000
1.000000 0.000000 0.000000
1.000000 0.000000 0.000000
1.000000 0.000000 0.000000
1.000000 0.000000 0.000000
1.000000 0.000000 0.000000
1.000000 0.000000 0.000000
1.000000 0.000000 0.000000
1.000000 0.000000 0.000000
1.000000 0.000000 0.000000
1.000000 0.000000 0.000000
1.000000 0.000000 0.000000
1.000000 0.000000 0.000000
1.000000 0.000000 0.000000
1.000000 0.000000 0.000000
1.000000 0.000000 0.000000
0.000000 0.070564 0.000000
0.000000 0.070519 0.000000
0.000000 0.070321 0.000000
0.000000 0.070125 0.000000
0.002346 0.069941 0.000000
0.007745 0.069751 0.000000
0.015780 0.069516 0.000000
0.028231 0.069198 0.000000
0.047149 0.068768 0.000000
0.075578 0.068185 0.000000
0.119044 0.069654 0.000000
0.176267 0.066565 0.000000
0.260484 0.062426 0.000000
0.384374 0.056906 0.000000
0.566560 0.049602 0.000000
0.834397 0.040057 0.000000
1.000000 0.027867 0.000000
1.000000 0.013080 0.000000
1.000000 0.000000 0.000000
1.000000 0.000000 0.000000
1.000000 0.000000 0.000000
1.000000 0.000000 0.000000
1.000000 0.000000 0.000000
1.000000 0.000000 0.000000
1.000000 0.000000 0.000000
1.000000 0.000000 0.000000
1.000000 0.000000 0.000000
1.000000 0.000000 0.000000
1.000000 0.000000 0.000000
1.000000 0.000000 0.000000
1.000000 0.000000 0.000000
1.000000 0.000000 0.000000
0.000000 0.105733 0.000000
0.000000 0.105737 0.000000
0.000000 0.105521 0.000000
0.000000 0.105307 0.000000
0.001307 0.105106 0.000000
0.006361 0.104900 0.000000
0.014159 0.104644 0.000000
0.026390 0.104298 0.000000
0.045095 0.103828 0.000000
0.073307 0.103193 0.000000
0.115509 0.102332 0.000000
0.179603 0.104326 0.000000
0.264103 0.099768 0.000000
0.388299 0.093658 0.000000
0.570818 0.085510 0.000000
0.839015 0.074725 0.000000
1.000000 0.060623 0.000000
1.000000 0.042586 0.000000
1.000000 0.020628 0.000000
1.000000 0.000000 0.000000
1.000000 0.000000 0.000000
1.000000 0.000000 0.000000
1.000000 0.000000 0.000000
1.000000 0.000000 0.000000
1.000000 0.000000 0.000000
1.000000 0.000000 0.000000
1.000000 0.000000 0.000000
1.000000 0.000000 0.000000
1.000000 0.000000 0.000000
1.000000 0.000000 0.000000
1.000000 0.000000 0.000000
1.000000 0.000000 0.000000
0.000000 0.157607 0.000000
0.000000 0.157688 0.000000
0.000000 0.157453 0.000000
0.000000 0.157221 0.000000
0.000174 0.157002 0.000000
0.004583 0.156777 0.000000
0.012021 0.156499 0.000000
0.023938 0.156122 0.000000
0.042341 0.155611 0.000000
0.070251 0.154919 0.000000
0.112142 0.153982 0.000000
0.174611 0.152712 0.000000
0.269027 0.155463 0.000000
0.393635 0.148744 0.000000
0.576601 0.139738 0.000000
0.845283 0.127727 0.000000
1.000000 0.111824 0.000000
1.000000 0.091020 0.000000
1.000000 0.064388 0.000000
1.000000 0.031882 0.000000
1.000000 0.000000 0.000000
1.000000 0.000000 0.000000
1.000000 0.000000 0.000000
1.000000 0.000000 0.000000
1.000000 0.000000 0.000000
1.000000 0.000000 0.000000
1.000000 0.000000 0.000000
1.000000 0.000000 0.000000
1.000000 0.000000 0.000000
1.000000 0.000000 0.000000
1.000000 0.000000 0.000000
1.000000 0.000000 0.000000
0.000000 0.234042 0.000000
0.000000 0.234243 0.000000
0.000000 0.233988 0.000000
0.000000 0.233736 0.000000
0.000000 0.233498 0.000000
0.002397 0.233254 0.000000
0.009249 0.232951 0.000000
0.020698 0.232542 0.000000
0.038667 0.231986 0.000000
0.066152 0.231233 0.000000
0.107612 0.230213 0.000000
0.169633 0.228832 0.000000
0.261913 0.226962 0.000000
0.400893 0.230809 0.000000
0.584460 0.220914 0.000000
0.853797 0.207652 0.000000
1.000000 0.189961 0.000000
1.000000 0.166536 0.000000
1.000000 0.135882 0.000000
1.000000 0.096615 0.000000
1.000000 0.048600 0.000000
1.000000 0.000422 0.000000
1.000000 0.000000 0.000000
1.000000 0.000000 0.000000
1.000000 0.000000 0.000000
1.000000 0.000000 0.000000
1.000000 0.000000 0.000000
1.000000 0.000000 0.000000
1.000000 0.000000 0.000000
1.000000 0.000000 0.000000
1.000000 0.000000 0.000000
1.000000 0.000000 0.000000
0.000000 0.346581 0.000000
0.000000 0.346808 0.000000
0.000000 0.346690 0.000000
0.000000 0.346415 0.000000
0.000000 0.346158 0.000000
0.000119 0.345892 0.000000
0.005762 0.345564 0.000000
0.016472 0.345118 0.000000
0.033804 0.344515 0.000000
0.060681 0.343697 0.000000
0.101535 0.342588 0.000000
0.162934 0.341086 0.000000
0.254566 0.339053 0.000000
0.390682 0.336300 0.000000
0.595149 0.341741 0.000000
0.865365 0.327179 0.000000
1.000000 0.307661 0.000000
1.000000 0.281625 0.000000
1.000000 0.247147 0.000000
1.000000 0.202020 0.000000
1.000000 0.144185 0.000000
1.000000 0.073371 0.000000
1.000000 0.001439 0.000000
1.000000 0.000000 0.000000
1.000000 0.000000 0.000000
1.000000 0.000000 0.000000
1.000000 0.000000 0.000000
1.000000 0.000000 0.000000
1.000000 0.000000 0.000000
1.000000 0.000000 0.000000
1.000000 0.000000 0.000000
1.000000 0.000000 0.000000
0.000000 0.512181 0.000000
0.000000 0.512427 0.000000
0.000000 0.512545 0.000000
0.000000 0.512247 0.000000
0.000000 0.511967 0.000000
0.000000 0.511678 0.000000
0.001725 0.511322 0.000000
0.011098 0.510838 0.000000
0.027442 0.510183 0.000000
0.053430 0.509294 0.000000
0.093419 0.508090 0.000000
0.153947 0.506459 0.000000
0.244678 0.504249 0.000000
0.379850 0.501256 0.000000
0.580407 0.497207 0.000000
0.881096 0.504973 0.000000
1.000000 0.483553 0.000000
1.000000 0.454844 0.000000
1.000000 0.416548 0.000000
1.000000 0.365831 0.000000
1.000000 0.299443 0.000000
1.000000 0.214328 0.000000
1.000000 0.110010 0.000000
1.000000 0.003161 0.000000
1.000000 0.000000 0.000000
1.000000 0.000000 0.000000
1.000000 0.000000 0.000000
1.000000 0.000000 0.000000
1.000000 0.000000 0.000000
1.000000 0.000000 0.000000
1.000000 0.000000 0.000000
1.000000 0.000000 0.000000
0.000000 0.755747 0.000000
0.000000 0.756014 0.000000
0.000000 0.756281 0.000000
0.000000 0.756180 0.000000
0.000000 0.755876 0.000000
0.000000 0.755563 0.000000
0.000000 0.755176 0.000000
0.004661 0.754651 0.000000
0.019303 0.753940 0.000000
0.043927 0.752975 0.000000
0.082655 0.751668 0.000000
0.141941 0.749896 0.000000
0.231411 0.747496 0.000000
0.365274 0.744246 0.000000
0.564455 0.739844 0.000000
0.859720 0.733888 0.000000
1.000000 0.745054 0.000000
1.000000 0.713559 0.000000
1.000000 0.671348 0.000000
1.000000 0.615043 0.000000
1.000000 0.540475 0.000000
1.000000 0.442855 0.000000
1.000000 0.317670 0.000000
1.000000 0.164129 0.000000
1.000000 0.005924 0.000000
1.000000 0.000000 0.000000
1.000000 0.000000 0.000000
1.000000 0.000000 0.000000
1.000000 0.000000 0.000000
1.000000 0.000000 0.000000
1.000000 0.000000 0.000000
1.000000 0.000000 0.000000
0.000000 1.000000 0.000000
0.000000 1.000000 0.000000
0.000000 1.000000 0.000000
0.000000 1.000000 0.000000
0.000000 1.000000 0.000000
0.000000 1.000000 0.000000
0.000000 1.000000 0.000000
0.000000 1.000000 0.000000
0.009388 1.000000 0.000000
0.031722 1.000000 0.000000
0.068529 1.000000 0.000000
0.126009 1.000000 0.000000
0.213685 1.000000 0.000000
0.345716 1.000000 0.000000
0.542989 1.000000 0.000000
0.836244 1.000000 0.000000
1.000000 1.000000 0.000000
1.000000 1.000000 0.000000
1.000000 1.000000 0.000000
1.000000 0.989702 0.000000
1.000000 0.906948 0.000000
1.000000 0.797351 0.000000
1.000000 0.653866 0.000000
1.000000 0.469832 0.000000
1.000000 0.243987 0.000000
1.000000 0.010250 0.000000
1.000000 0.000000 0.000000
1.000000 0.000000 0.000000
1.000000 0.000000 0.000000
1.000000 0.000000 0.000000
1.000000 0.000000 0.000000
1.000000 0.000000 0.000000
0.000000 1.000000 0.000000
0.000000 1.000000 0.000000
0.000000 1.000000 0.000000
0.000000 1.000000 0.000000
0.000000 1.000000 0.000000
0.000000 1.000000 0.000000
0.000000 1.000000 0.000000
0.000000 1.000000 0.000000
0.000000 1.000000 0.000000
0.016710 1.000000 0.000000
0.050344 1.000000 0.000000
0.105085 1.000000 0.000000
0.190154 1.000000 0.000000
0.319582 1.000000 0.000000
0.514184 1.000000 0.000000
0.804653 1.000000 0.000000
1.000000 1.000000 0.000000
1.000000 1.000000 0.000000
1.000000 1.000000 0.000000
1.000000 1.000000 0.000000
1.000000 1.000000 0.000000
1.000000 1.000000 0.000000
1.000000 1.000000 0.000000
1.000000 0.964217 0.000000
1.000000 0.693771 0.000000
1.000000 0.361736 0.000000
1.000000 0.016935 0.000000
1.000000 0.000000 0.000000
1.000000 0.000000 0.000000
1.000000 0.000000 0.000000
1.000000 0.000000 0.000000
1.000000 0.000000 0.000000
0.000000 1.000000 0.000000
0.000000 1.000000 0.000000
0.000000 1.000000 0.000000
0.000000 1.000000 0.000000
0.000000 1.000000 0.000000
0.000000 1.000000 0.000000
0.000000 1.000000 0.000000
0.000000 1.000000 0.000000
0.000000 1.000000 0.000000
0.000983 1.000000 0.000000
0.027838 1.000000 0.000000
0.078100 1.000000 0.000000
0.159233 1.000000 0.000000
0.284881 1.000000 0.000000
0.475694 1.000000 0.000000
0.762264 1.000000 0.000000
1.000000 1.000000 0.000000
1.000000 1.000000 0.000000
1.000000 1.000000 0.000000
1.000000 1.000000 0.000000
1.000000 1.000000 0.000000
1.000000 1.000000 0.000000
1.000000 1.000000 0.000000
1.000000 1.000000 0.000000
1.000000 1.000000 0.000000
1.000000 1.000000 0.000000
1.000000 0.535253 0.000000
1.000000 0.027176 0.000000
1.000000 0.000000 0.000000
1.000000 0.000000 0.000000
1.000000 0.000000 0.000000
1.000000 0.000000 0.000000
0.000000 1.000000 0.000000
0.000000 1.000000 0.000000
0.000000 1.000000 0.000000
0.000000 1.000000 0.000000
0.000000 1.000000 0.000000
0.000000 1.000000 0.000000
0.000000 1.000000 0.000000
0.000000 1.000000 0.000000
0.000000 1.000000 0.000000
0.000000 1.000000 0.000000
0.003432 1.000000 0.000000
0.044572 1.000000 0.000000
0.119309 1.000000 0.000000
0.239264 1.000000 0.000000
0.424580 1.000000 0.000000
0.705620 1.000000 0.000000
1.000000 1.000000 0.000000
1.000000 1.000000 0.000000
1.000000 1.000000 0.000000
1.000000 1.000000 0.000000
1.000000 1.000000 0.000000
1.000000 1.000000 0.000000
1.000000 1.000000 0.000000
1.000000 1.000000 0.000000
1.000000 1.000000 0.000000
1.000000 1.000000 0.000000
1.000000 1.000000 0.000000
1.000000 0.790829 0.000000
1.000000 0.042778 0.000000
1.000000 0.000000 0.000000
1.000000 0.000000 0.000000
1.000000 0.000000 0.000000
0.000000 1.000000 0.000000
0.000000 1.000000 0.000000
0.000000 1.000000 0.000000
0.000000 1.000000 0.000000
0.000000 1.000000 0.000000
0.000000 1.000000 0.000000
0.000000 1.000000 0.000000
0.000000 1.000000 0.000000
0.000000 1.000000 0.000000
0.000000 1.000000 0.000000
0.000000 1.000000 0.000000
0.007504 1.000000 0.000000
0.069569 1.000000 0.000000
0.180319 1.000000 0.000000
0.357368 1.000000 0.000000
0.630391 1.000000 0.000000
1.000000 1.000000 0.000000
1.000000 1.000000 0.000000
1.000000 1.000000 0.000000
1.000000 1.000000 0.000000
1.000000 1.000000 0.000000
1.000000 1.000000 0.000000
1.000000 1.000000 0.000000
1.000000 1.000000 0.000000
1.000000 1.000000 0.000000
1.000000 1.000000 0.000000
1.000000 1.000000 0.000000
1.000000 1.000000 0.000000
1.000000 1.000000 0.000000
1.000000 0.066439 0.000000
1.000000 0.000000 0.000000
1.000000 0.000000 0.000000
0.000000 1.000000 0.000000
0.000000 1.000000 0.000000
0.000000 1.000000 0.000000
0.000000 1.000000 0.000000
0.000000 1.000000 0.000000
0.000000 1.000000 0.000000
0.000000 1.000000 0.000000
0.000000 1.000000 0.000000
0.000000 1.000000 0.000000
0.000000 1.000000 0.000000
0.000000 1.000000 0.000000
0.000000 1.000000 0.000000
0.013906 1.000000 0.000000
0.106740 1.000000 0.000000
0.270470 1.000000 0.000000
0.531453 1.000000 0.000000
0.933372 1.000000 0.000000
1.000000 1.000000 0.000000
1.000000 1.000000 0.000000
1.000000 1.000000 0.000000
1.000000 1.000000 0.000000
1.000000 1.000000 0.000000
1.000000 1.000000 0.000000
1.000000 1.000000 0.000000
1.000000 1.000000 0.000000
1.000000 1.000000 0.000000
1.000000 1.000000 0.000000
1.000000 1.000000 0.000000
1.000000 1.000000 0.000000
1.000000 1.000000 0.000000
1.000000 0.102226 0.000000
1.000000 0.000000 0.000000
0.000000 1.000000 0.000000
0.000000 1.000000 0.000000
0.000000 1.000000 0.000000
0.000000 1.000000 0.000000
0.000000 1.000000 0.000000
0.000000 1.000000 0.000000
0.000000 1.000000 0.000000
0.000000 1.000000 0.000000
0.000000 1.000000 0.000000
0.000000 1.000000 0.000000
0.000000 1.000000 0.000000
0.000000 1.000000 0.000000
0.000000 1.000000 0.000000
0.023733 1.000000 0.000000
0.161848 1.000000 0.000000
0.403483 1.000000 0.000000
0.787831 1.000000 0.000000
1.000000 1.000000 0.000000
1.000000 1.000000 0.000000
1.000000 1.000000 0.000000
1.000000 1.000000 0.000000
1.000000 1.000000 0.000000
1.000000 1.000000 0.000000
1.000000 1.000000 0.000000
1.000000 1.000000 0.000000
1.000000 1.000000 0.000000
1.000000 1.000000 0.000000
1.000000 1.000000 0.000000
1.000000 1.000000 0.000000
1.000000 1.000000 0.000000
1.000000 1.000000 0.000000
1.000000 0.156200 0.000000
0.000000 1.000000 0.000000
0.000000 1.000000 0.000000
0.000000 1.000000 0.000000
0.000000 1.000000 0.000000
0.000000 1.000000 0.000000
0.000000 1.000000 0.000000
0.000000 1.000000 0.000000
0.000000 1.000000 0.000000
0.000000 1.000000 0.000000
0.000000 1.000000 0.000000
0.000000 1.000000 0.000000
0.000000 1.000000 0.000000
0.000000 1.000000 0.000000
0.000000 1.000000 0.000000
0.038620 1.000000 0.000000
0.243363 1.000000 0.000000
0.599534 1.000000 0.000000
1.000000 1.000000 0.000000
1.000000 1.000000 0.000000
1.000000 1.000000 0.000000
1.000000 1.000000 0.000000
1.000000 1.000000 0.000000
1.000000 1.000000 0.000000
1.000000 1.000000 0.000000
1.000000 1.000000 0.000000
1.000000 1.000000 0.000000
1.000000 1.000000 0.000000
1.000000 1.000000 0.000000
1.000000 1.000000 0.000000
1.000000 1.000000 0.000000
1.000000 1.000000 0.000000
1.000000 1.000000 0.000000
0.000000 1.000000 0.000000
0.000000 1.000000 0.000000
0.000000 1.000000 0.000000
0.000000 1.000000 0.000000
0.000000 1.000000 0.000000
0.000000 1.000000 0.000000
0.000000 1.000000 0.000000
0.000000 1.000000 0.000000
0.000000 1.000000 0.000000
0.000000 1.000000 0.000000
0.000000 1.000000 0.000000
0.000000 1.000000 0.000000
0.000000 1.000000 0.000000
0.000000 1.000000 0.000000
0.000000 1.000000 0.000000
0.060990 1.000000 0.000000
0.363762 1.000000 0.000000
0.888264 1.000000 0.000000
1.000000 1.000000 0.000000
1.000000 1.000000 0.000000
1.000000 1.000000 0.000000
1.000000 1.000000 0.000000
1.000000 1.000000 0.000000
1.000000 1.000000 0.000000
1.000000 1.000000 0.000000
1.000000 1.000000 0.000000
1.000000 1.000000 0.000000
1.000000 1.000000 0.000000
1.000000 1.000000 0.000000
1.000000 1.000000 0.000000
1.000000 1.000000 0.000000
1.000000 1.000000 0.000000
0.000000 1.000000 0.000000
0.000000 1.000000 0.000000
0.000000 1.000000 0.000000
0.000000 1.000000 0.000000
0.000000 1.000000 0.000000
0.000000 1.000000 0.000000
0.000000 1.000000 0.000000
0.000000 1.000000 0.000000
0.000000 1.000000 0.000000
0.000000 1.000000 0.000000
0.000000 1.000000 0.000000
0.000000 1.000000 0.000000
0.000000 1.000000 0.000000
0.000000 1.000000 0.000000
0.000000 1.000000 0.000000
0.000000 1.000000 0.000000
0.094434 1.000000 0.000000
0.541369 1.000000 0.000000
1.000000 1.000000 0.000000
1.000000 1.000000 0.000000
1.000000 1.000000 0.000000
1.000000 1.000000 0.000000
1.000000 1.000000 0.000000
1.000000 1.000000 0.000000
1.000000 1.000000 0.000000
1.000000 1.000000 0.000000
1.000000 1.000000 0.000000
1.000000 1.000000 0.000000
1.000000 1.000000 0.000000
1.000000 1.000000 0.000000
1.000000 1.000000 0.000000
1.000000 1.000000 0.000000
0.000000 1.000000 0.000000
0.000000 1.000000 0.000000
0.000000 1.000000 0.000000
0.000000 1.000000 0.000000
0.000000 1.000000 0.000000
0.000000 1.000000 0.000000
0.000000 1.000000 0.000000
0.000000 1.000000 0.000000
0.000000 1.000000 0.000000
0.000000 1.000000 0.000000
0.000000 1.000000 0.000000
0.000000 1.000000 0.000000
0.000000 1.000000 0.000000
0.000000 1.000000 0.000000
0.000000 1.000000 0.000000
0.000000 1.000000 0.000000
0.000000 1.000000 0.000000
0.144252 1.000000 0.000000
0.803153 1.000000 0.000000
1.000000 1.000000 0.000000
1.000000 1.000000 0.000000
1.000000 1.000000 0.000000
1.000000 1.000000 0.000000
1.000000 1.000000 0.000000
1.000000 1.000000 0.000000
1.000000 1.000000 0.000000
1.000000 1.000000 0.000000
1.000000 1.000000 0.000000
1.000000 1.000000 0.000000
1.000000 1.000000 0.000000
1.000000 1.000000 0.000000
1.000000 1.000000 0.000000
0.000000 1.000000 0.000000
0.000000 1.000000 0.000000
0.000000 1.000000 0.000000
0.000000 1.000000 0.000000
0.000000 1.000000 0.000000
0.000000 1.000000 0.000000
0.000000 1.000000 0.000000
0.000000 1.000000 0.000000
0.000000 1.000000 0.000000
0.000000 1.000000 0.000000
0.000000 1.000000 0.000000
0.000000 1.000000 0.000000
0.000000 1.000000 0.000000
0.000000 1.000000 0.000000
0.000000 1.000000 0.000000
0.000000 1.000000 0.000000
0.000000 1.000000 0.000000
0.000000 1.000000 0.000000
