Assets/_ICAProject/ThirdPartyAssets/Textures/LUT/leanne-lut.CUBE
#Created by: Adobe Photoshop Export Color Lookup Plugin
TITLE "leanne_lut.psd"
#LUT size
LUT_3D_SIZE 5
#data domain
#LUT data points
DOMAIN_MIN 0.000000 0.000000 0.000000
DOMAIN_MAX 0.903226 0.903226 0.903226
0.000000 0.000000 0.000000
0.028498 0.000000 0.000000
0.553000 0.000000 0.000000
1.000000 0.000000 0.000000
1.000000 0.000000 0.000000
0.000000 0.030662 0.000000
0.030626 0.029467 0.000000
0.561113 0.011311 0.000000
1.000000 0.000000 0.000000
1.000000 0.000000 0.000000
0.000000 0.512181 0.000000
0.011098 0.510838 0.000000
0.580407 0.497207 0.000000
1.000000 0.214328 0.000000
1.000000 0.000000 0.000000
0.000000 1.000000 0.000000
0.000000 1.000000 0.000000
0.270470 1.000000 0.000000
1.000000 1.000000 0.000000
1.000000 1.000000 0.000000
0.000000 1.000000 0.000000
0.000000 1.000000 0.000000
0.000000 1.000000 0.000000
1.000000 1.000000 0.000000
1.000000 1.000000 0.000000
0.000000 0.000000 0.023785
0.035903 0.000000 0.022149
0.562089 0.000000 0.000000
1.000000 0.000000 0.000000
1.000000 0.000000 0.000000
0.000000 0.027743 0.022424
0.034638 0.024183 0.018968
0.564229 0.005733 0.001896
1.000000 0.000000 0.000000
1.000000 0.000000 0.000000
0.000000 0.510294 0.006445
0.027340 0.500222 0.002917
0.587761 0.487468 0.000000
1.000000 0.203358 0.000000
1.000000 0.000000 0.000000
0.000000 1.000000 0.000000
0.000000 1.000000 0.000000
0.276740 1.000000 0.000000
1.000000 1.000000 0.000000
1.000000 1.000000 0.000000
0.000000 1.000000 0.000000
0.000000 1.000000 0.000000
0.000000 1.000000 0.000000
1.000000 1.000000 0.000000
1.000000 1.000000 0.000000
0.002826 0.000000 0.391180
0.064471 0.000000 0.390871
0.647852 0.000000 0.370730
1.000000 0.000000 0.009976
1.000000 0.000000 0.000000
0.000000 0.000000 0.389279
0.060282 0.000000 0.382326
0.645520 0.000000 0.364900
1.000000 0.000000 0.007326
1.000000 0.000000 0.000000
0.013884 0.475564 0.374177
0.075289 0.469015 0.367839
0.631735 0.430602 0.330753
1.000000 0.141006 0.061599
1.000000 0.000000 0.000000
0.000000 1.000000 0.125945
0.013391 1.000000 0.118897
0.518625 1.000000 0.079025
1.000000 1.000000 0.000000
1.000000 1.000000 0.000000
0.000000 1.000000 0.000000
0.000000 1.000000 0.000000
0.000000 1.000000 0.000000
1.000000 1.000000 0.000000
1.000000 1.000000 0.000000
0.248735 0.000000 1.000000
0.351806 0.000000 1.000000
1.000000 0.000000 1.000000
1.000000 0.000000 1.000000
1.000000 0.000000 0.197125
0.154062 0.000000 1.000000
0.345795 0.000000 1.000000
1.000000 0.000000 1.000000
1.000000 0.000000 1.000000
1.000000 0.000000 0.192019
0.107917 0.000000 1.000000
0.188636 0.000000 1.000000
1.000000 0.034484 1.000000
1.000000 0.000000 1.000000
1.000000 0.000000 0.162396
0.450576 1.000000 1.000000
0.555182 1.000000 1.000000
1.000000 1.000000 1.000000
1.000000 1.000000 1.000000
1.000000 1.000000 0.986525
0.000000 1.000000 1.000000
0.000000 1.000000 1.000000
0.301667 1.000000 1.000000
1.000000 1.000000 1.000000
1.000000 1.000000 0.000638
1.000000 0.000000 1.000000
1.000000 0.000000 1.000000
1.000000 0.000000 1.000000
1.000000 0.000000 1.000000
1.000000 0.000000 1.000000
1.000000 0.000000 1.000000
1.000000 0.000000 1.000000
1.000000 0.000000 1.000000
1.000000 0.000000 1.000000
1.000000 0.000000 1.000000
1.000000 0.000000 1.000000
1.000000 0.000000 1.000000
1.000000 0.000000 1.000000
1.000000 0.000000 1.000000
1.000000 0.000000 1.000000
1.000000 0.000000 1.000000
1.000000 0.000000 1.000000
1.000000 0.000000 1.000000
1.000000 0.604456 1.000000
1.000000 0.000000 1.000000
1.000000 1.000000 1.000000
1.000000 1.000000 1.000000
1.000000 1.000000 1.000000
1.000000 1.000000 1.000000
1.000000 1.000000 1.000000
