Assets/_ICAProject/ThirdPartyAssets/Textures/LUT/leanne-lut.CUBE
#Created by: Adobe Photoshop Export Color Lookup Plugin
TITLE "leanne_lut.psd"
#LUT size
LUT_3D_SIZE 8
#data domain
#LUT data points
DOMAIN_MIN 0.000000 0.000000 0.000000
DOMAIN_MAX 0.903226 0.903226 0.903226
0.000000 0.000000 0.000000
0.004272 0.000000 0.000000
0.045661 0.000000 0.000000
0.248991 0.000000 0.000000
1.000000 0.000000 0.000000
1.000000 0.000000 0.000000
1.000000 0.000000 0.000000
1.000000 0.000000 0.000000
0.000000 0.007227 0.000000
0.005009 0.006777 0.000000
0.048126 0.005436 0.000000
0.252495 0.000092 0.000000
1.000000 0.000000 0.000000
1.000000 0.000000 0.000000
1.000000 0.000000 0.000000
1.000000 0.000000 0.000000
0.000000 0.046753 0.000000
0.003184 0.046149 0.000000
0.048676 0.045075 0.000000
0.257821 0.037555 0.000000
1.000000 0.008043 0.000000
1.000000 0.000000 0.000000
1.000000 0.000000 0.000000
1.000000 0.000000 0.000000
0.000000 0.234042 0.000000
0.000000 0.233498 0.000000
0.038667 0.231986 0.000000
0.261913 0.226962 0.000000
1.000000 0.189961 0.000000
1.000000 0.048600 0.000000
1.000000 0.000000 0.000000
1.000000 0.000000 0.000000
0.000000 1.000000 0.000000
0.000000 1.000000 0.000000
0.009388 1.000000 0.000000
0.213685 1.000000 0.000000
1.000000 1.000000 0.000000
1.000000 0.906948 0.000000
1.000000 0.243987 0.000000
1.000000 0.000000 0.000000
0.000000 1.000000 0.000000
0.000000 1.000000 0.000000
0.000000 1.000000 0.000000
0.069569 1.000000 0.000000
1.000000 1.000000 0.000000
1.000000 1.000000 0.000000
1.000000 1.000000 0.000000
1.000000 1.000000 0.000000
0.000000 1.000000 0.000000
0.000000 1.000000 0.000000
0.000000 1.000000 0.000000
0.000000 1.000000 0.000000
0.363762 1.000000 0.000000
1.000000 1.000000 0.000000
1.000000 1.000000 0.000000
1.000000 1.000000 0.000000
0.000000 1.000000 0.000000
0.000000 1.000000 0.000000
0.000000 1.000000 0.000000
0.000000 1.000000 0.000000
0.000000 1.000000 0.000000
1.000000 1.000000 0.000000
1.000000 1.000000 0.000000
1.000000 1.000000 0.000000
0.000000 0.000000 0.005814
0.006885 0.000000 0.005195
0.049427 0.000000 0.002568
0.252714 0.000000 0.000000
1.000000 0.000000 0.000000
1.000000 0.000000 0.000000
1.000000 0.000000 0.000000
1.000000 0.000000 0.000000
0.000000 0.006133 0.005298
0.006430 0.004822 0.004009
0.049078 0.002977 0.002219
0.253842 0.000000 0.000000
1.000000 0.000000 0.000000
1.000000 0.000000 0.000000
1.000000 0.000000 0.000000
1.000000 0.000000 0.000000
0.000000 0.046171 0.004019
0.005753 0.043080 0.002351
0.050916 0.042085 0.001596
0.259173 0.033690 0.000000
1.000000 0.005328 0.000000
1.000000 0.000000 0.000000
1.000000 0.000000 0.000000
1.000000 0.000000 0.000000
0.000000 0.233224 0.000000
0.003622 0.228859 0.000000
0.040803 0.227747 0.000000
0.265091 0.222743 0.000000
1.000000 0.184484 0.000000
1.000000 0.044511 0.000000
1.000000 0.000000 0.000000
1.000000 0.000000 0.000000
0.000000 1.000000 0.000000
0.000000 1.000000 0.000000
0.010993 1.000000 0.000000
0.216731 1.000000 0.000000
1.000000 1.000000 0.000000
1.000000 0.899326 0.000000
1.000000 0.238210 0.000000
1.000000 0.000000 0.000000
0.000000 1.000000 0.000000
0.000000 1.000000 0.000000
0.000000 1.000000 0.000000
0.071980 1.000000 0.000000
1.000000 1.000000 0.000000
1.000000 1.000000 0.000000
1.000000 1.000000 0.000000
1.000000 1.000000 0.000000
0.000000 1.000000 0.000000
0.000000 1.000000 0.000000
0.000000 1.000000 0.000000
0.000000 1.000000 0.000000
0.367164 1.000000 0.000000
1.000000 1.000000 0.000000
1.000000 1.000000 0.000000
1.000000 1.000000 0.000000
0.000000 1.000000 0.000000
0.000000 1.000000 0.000000
0.000000 1.000000 0.000000
0.000000 1.000000 0.000000
0.000000 1.000000 0.000000
1.000000 1.000000 0.000000
1.000000 1.000000 0.000000
1.000000 1.000000 0.000000
0.000000 0.000000 0.036089
0.010149 0.000000 0.035994
0.056133 0.000000 0.033794
0.262069 0.000000 0.020589
1.000000 0.000000 0.000000
1.000000 0.000000 0.000000
1.000000 0.000000 0.000000
1.000000 0.000000 0.000000
0.000000 0.002416 0.035372
0.008711 0.002174 0.033363
0.055421 0.001656 0.032000
0.261084 0.000000 0.018977
1.000000 0.000000 0.000000
1.000000 0.000000 0.000000
1.000000 0.000000 0.000000
1.000000 0.000000 0.000000
0.000000 0.042654 0.034180
0.010003 0.040645 0.032230
0.054346 0.037643 0.029324
0.261223 0.028013 0.020093
1.000000 0.001765 0.000000
1.000000 0.000000 0.000000
1.000000 0.000000 0.000000
1.000000 0.000000 0.000000
0.000000 0.231988 0.027212
0.007802 0.227627 0.024614
0.050799 0.221059 0.020790
0.269918 0.216386 0.016749
1.000000 0.176257 0.000000
1.000000 0.038469 0.000000
1.000000 0.000000 0.000000
1.000000 0.000000 0.000000
0.000000 1.000000 0.002424
0.000940 1.000000 0.000970
0.039219 1.000000 0.000000
0.221359 1.000000 0.000000
1.000000 1.000000 0.000000
1.000000 0.887813 0.000000
1.000000 0.229521 0.000000
1.000000 0.000000 0.000000
0.000000 1.000000 0.000000
0.000000 1.000000 0.000000
0.006292 1.000000 0.000000
0.075664 1.000000 0.000000
1.000000 1.000000 0.000000
1.000000 1.000000 0.000000
1.000000 1.000000 0.000000
1.000000 1.000000 0.000000
0.000000 1.000000 0.000000
0.000000 1.000000 0.000000
0.000000 1.000000 0.000000
0.000000 1.000000 0.000000
0.372330 1.000000 0.000000
1.000000 1.000000 0.000000
1.000000 1.000000 0.000000
1.000000 1.000000 0.000000
0.000000 1.000000 0.000000
0.000000 1.000000 0.000000
0.000000 1.000000 0.000000
0.000000 1.000000 0.000000
0.000000 1.000000 0.000000
1.000000 1.000000 0.000000
1.000000 1.000000 0.000000
1.000000 1.000000 0.000000
0.000000 0.000000 0.179041
0.018833 0.000000 0.178907
0.071591 0.000000 0.178705
0.293737 0.000000 0.169370
1.000000 0.000000 0.106659
1.000000 0.000000 0.000000
1.000000 0.000000 0.000000
1.000000 0.000000 0.000000
0.000000 0.000000 0.178243
0.017185 0.000000 0.175202
0.069396 0.000000 0.175001
0.292728 0.000000 0.166843
1.000000 0.000000 0.104367
1.000000 0.000000 0.000000
1.000000 0.000000 0.000000
1.000000 0.000000 0.000000
0.000000 0.023525 0.176565
0.013565 0.021758 0.173800
0.066100 0.023668 0.169424
0.291202 0.020777 0.163033
1.000000 0.000000 0.100919
1.000000 0.000000 0.000000
1.000000 0.000000 0.000000
1.000000 0.000000 0.000000
0.000737 0.216732 0.171000
0.023778 0.213896 0.168253
0.072658 0.209617 0.164112
0.286130 0.195493 0.150475
1.000000 0.149435 0.106417
1.000000 0.019857 0.000000
1.000000 0.000000 0.000000
1.000000 0.000000 0.000000
0.000000 1.000000 0.136993
0.015299 1.000000 0.133317
0.061289 1.000000 0.127793
0.269149 1.000000 0.109754
1.000000 1.000000 0.090371
1.000000 0.849680 0.000000
1.000000 0.201078 0.000000
1.000000 0.000000 0.000000
0.000000 1.000000 0.017752
0.000000 1.000000 0.015387
0.023111 1.000000 0.011950
0.213600 1.000000 0.002210
1.000000 1.000000 0.000000
1.000000 1.000000 0.000000
1.000000 1.000000 0.000000
1.000000 1.000000 0.000000
0.000000 1.000000 0.000000
0.000000 1.000000 0.000000
0.000000 1.000000 0.000000
0.051596 1.000000 0.000000
0.389652 1.000000 0.000000
1.000000 1.000000 0.000000
1.000000 1.000000 0.000000
1.000000 1.000000 0.000000
0.000000 1.000000 0.000000
0.000000 1.000000 0.000000
0.000000 1.000000 0.000000
0.000000 1.000000 0.000000
0.000000 1.000000 0.000000
1.000000 1.000000 0.000000
1.000000 1.000000 0.000000
1.000000 1.000000 0.000000
0.020466 0.000000 0.849971
0.054175 0.000000 0.849786
0.114997 0.000000 0.849505
0.365539 0.000000 0.848569
1.000000 0.000000 0.806331
1.000000 0.000000 0.512729
1.000000 0.000000 0.000000
1.000000 0.000000 0.000000
0.000703 0.000000 0.849840
0.052107 0.000000 0.844639
0.112570 0.000000 0.844358
0.362440 0.000000 0.843424
1.000000 0.000000 0.802821
1.000000 0.000000 0.509537
1.000000 0.000000 0.000000
1.000000 0.000000 0.000000
0.002513 0.000000 0.847509
0.026987 0.000000 0.843660
0.108915 0.000000 0.836579
0.357759 0.000000 0.835646
1.000000 0.000000 0.797512
1.000000 0.000000 0.504715
1.000000 0.000000 0.000000
1.000000 0.000000 0.000000
0.010584 0.125510 0.839753
0.038501 0.122983 0.835912
0.090721 0.119178 0.830103
0.342255 0.128551 0.809845
1.000000 0.114610 0.779880
1.000000 0.000000 0.488715
1.000000 0.000000 0.000000
1.000000 0.000000 0.000000
0.047814 1.000000 0.813687
0.082513 1.000000 0.809871
0.141375 1.000000 0.804100
0.373498 1.000000 0.784938
1.000000 0.939692 0.720989
1.000000 0.723659 0.514447
1.000000 0.111612 0.000000
1.000000 0.000000 0.000000
0.016828 1.000000 0.653251
0.046209 1.000000 0.648139
0.099463 1.000000 0.640414
0.319388 1.000000 0.614821
1.000000 1.000000 0.530107
1.000000 1.000000 0.439108
1.000000 1.000000 0.000000
1.000000 0.973041 0.000000
0.000000 1.000000 0.093346
0.000000 1.000000 0.089958
0.000000 1.000000 0.084879
0.135909 1.000000 0.068430
1.000000 1.000000 0.019693
1.000000 1.000000 0.000000
1.000000 1.000000 0.000000
1.000000 1.000000 0.000000
0.000000 1.000000 0.000000
0.000000 1.000000 0.000000
0.000000 1.000000 0.000000
0.000000 1.000000 0.000000
0.276029 1.000000 0.000000
1.000000 1.000000 0.000000
1.000000 1.000000 0.000000
1.000000 1.000000 0.000000
0.161609 0.000000 1.000000
0.209217 0.000000 1.000000
0.285782 0.000000 1.000000
0.570896 0.000000 1.000000
1.000000 0.000000 1.000000
1.000000 0.000000 1.000000
1.000000 0.000000 1.000000
1.000000 0.000000 0.000000
0.116800 0.000000 1.000000
0.206462 0.000000 1.000000
0.282838 0.000000 1.000000
0.567490 0.000000 1.000000
1.000000 0.000000 1.000000
1.000000 0.000000 1.000000
1.000000 0.000000 1.000000
1.000000 0.000000 0.000000
0.055717 0.000000 1.000000
0.135669 0.000000 1.000000
0.278396 0.000000 1.000000
0.562347 0.000000 1.000000
1.000000 0.000000 1.000000
1.000000 0.000000 1.000000
1.000000 0.000000 1.000000
1.000000 0.000000 0.000000
0.060431 0.000000 1.000000
0.096541 0.000000 1.000000
0.156994 0.000000 1.000000
0.545275 0.000000 1.000000
1.000000 0.000000 1.000000
1.000000 0.000000 1.000000
1.000000 0.000000 1.000000
1.000000 0.000000 0.000000
0.107704 0.608129 1.000000
0.147752 0.604603 1.000000
0.212918 0.599275 1.000000
0.459215 0.581592 1.000000
1.000000 0.625572 1.000000
1.000000 0.560029 1.000000
1.000000 0.000000 1.000000
1.000000 0.000000 0.000000
0.298167 1.000000 1.000000
0.346852 1.000000 1.000000
0.423349 1.000000 1.000000
0.698546 1.000000 1.000000
1.000000 1.000000 1.000000
1.000000 1.000000 1.000000
1.000000 1.000000 1.000000
1.000000 0.552293 0.000000
0.141162 1.000000 1.000000
0.182985 1.000000 1.000000
0.250264 1.000000 1.000000
0.500896 1.000000 1.000000
1.000000 1.000000 1.000000
1.000000 1.000000 1.000000
1.000000 1.000000 1.000000
1.000000 1.000000 0.000000
0.000000 1.000000 0.454587
0.000000 1.000000 0.449854
0.000000 1.000000 0.442705
0.000000 1.000000 0.419061
0.676313 1.000000 0.341340
1.000000 1.000000 0.109389
1.000000 1.000000 0.000000
1.000000 1.000000 0.000000
0.849108 0.000000 1.000000
0.915210 0.000000 1.000000
1.000000 0.000000 1.000000
1.000000 0.000000 1.000000
1.000000 0.000000 1.000000
1.000000 0.000000 1.000000
1.000000 0.000000 1.000000
1.000000 0.000000 1.000000
0.784070 0.000000 1.000000
0.911450 0.000000 1.000000
1.000000 0.000000 1.000000
1.000000 0.000000 1.000000
1.000000 0.000000 1.000000
1.000000 0.000000 1.000000
1.000000 0.000000 1.000000
1.000000 0.000000 1.000000
0.687738 0.000000 1.000000
0.811869 0.000000 1.000000
1.000000 0.000000 1.000000
1.000000 0.000000 1.000000
1.000000 0.000000 1.000000
1.000000 0.000000 1.000000
1.000000 0.000000 1.000000
1.000000 0.000000 1.000000
0.388200 0.000000 1.000000
0.499337 0.000000 1.000000
0.677843 0.000000 1.000000
1.000000 0.000000 1.000000
1.000000 0.000000 1.000000
1.000000 0.000000 1.000000
1.000000 0.000000 1.000000
1.000000 0.000000 1.000000
0.359963 0.000000 1.000000
0.410502 0.000000 1.000000
0.489549 0.000000 1.000000
0.771723 0.000000 1.000000
1.000000 0.000000 1.000000
1.000000 0.000000 1.000000
1.000000 0.000000 1.000000
1.000000 0.000000 1.000000
0.589365 1.000000 1.000000
0.645169 1.000000 1.000000
0.731610 1.000000 1.000000
1.000000 1.000000 1.000000
1.000000 1.000000 1.000000
1.000000 1.000000 1.000000
1.000000 1.000000 1.000000
1.000000 0.000000 1.000000
1.000000 1.000000 1.000000
1.000000 1.000000 1.000000
1.000000 1.000000 1.000000
1.000000 1.000000 1.000000
1.000000 1.000000 1.000000
1.000000 1.000000 1.000000
1.000000 1.000000 1.000000
1.000000 1.000000 1.000000
0.750392 1.000000 1.000000
0.808600 1.000000 1.000000
0.898410 1.000000 1.000000
1.000000 1.000000 1.000000
1.000000 1.000000 1.000000
1.000000 1.000000 1.000000
1.000000 1.000000 1.000000
1.000000 1.000000 1.000000
1.000000 0.000000 1.000000
1.000000 0.000000 1.000000
1.000000 0.000000 1.000000
1.000000 0.000000 1.000000
1.000000 0.000000 1.000000
1.000000 0.000000 1.000000
1.000000 0.000000 1.000000
1.000000 0.000000 1.000000
1.000000 0.000000 1.000000
1.000000 0.000000 1.000000
1.000000 0.000000 1.000000
1.000000 0.000000 1.000000
1.000000 0.000000 1.000000
1.000000 0.000000 1.000000
1.000000 0.000000 1.000000
1.000000 0.000000 1.000000
1.000000 0.000000 1.000000
1.000000 0.000000 1.000000
1.000000 0.000000 1.000000
1.000000 0.000000 1.000000
1.000000 0.000000 1.000000
1.000000 0.000000 1.000000
1.000000 0.000000 1.000000
1.000000 0.000000 1.000000
1.000000 0.000000 1.000000
1.000000 0.000000 1.000000
1.000000 0.000000 1.000000
1.000000 0.000000 1.000000
1.000000 0.000000 1.000000
1.000000 0.000000 1.000000
1.000000 0.000000 1.000000
1.000000 0.000000 1.000000
1.000000 0.000000 1.000000
1.000000 0.000000 1.000000
1.000000 0.000000 1.000000
1.000000 0.000000 1.000000
1.000000 0.000000 1.000000
1.000000 0.000000 1.000000
1.000000 0.000000 1.000000
1.000000 0.000000 1.000000
1.000000 0.000000 1.000000
1.000000 0.000000 1.000000
1.000000 0.000000 1.000000
1.000000 0.000000 1.000000
1.000000 0.000000 1.000000
1.000000 0.000000 1.000000
1.000000 0.000000 1.000000
1.000000 0.000000 1.000000
1.000000 1.000000 1.000000
1.000000 1.000000 1.000000
1.000000 1.000000 1.000000
1.000000 1.000000 1.000000
1.000000 1.000000 1.000000
1.000000 1.000000 1.000000
1.000000 1.000000 1.000000
1.000000 1.000000 1.000000
1.000000 1.000000 1.000000
1.000000 1.000000 1.000000
1.000000 1.000000 1.000000
1.000000 1.000000 1.000000
1.000000 1.000000 1.000000
1.000000 1.000000 1.000000
1.000000 1.000000 1.000000
1.000000 1.000000 1.000000
